X: 97
T:Untitled. HA.096
M:6/4
Q:100
C:in Hand C
S:Henry Atkinson's original MS,Hartburn,N'umberland,1694.
O:England
A:Hartburn,Northumberland
H:1/4
Z:vmp.Chris Partington.Jan.2004
K:Bb
b|d>ef g>ag|fge d>cB|Ac2-c2F|!
B>AG FAD|E>FE F>GF|DB,2-B,2:|!
|:B,|D2B D>FA|C2c c>dc|AF2-F>GA|!
B2b a>gf|g2d e>fe|dB2-B2:|]
